X:8
T:Cooley's
M:4/4
L:1/8
R: reel
O:Trad. (26.11.2014/NS)
K:Edor
|:D2| "Em" EBBA B2 EB| B2 AB dBAG| "D" F/E/D AD BDAD| FDAD dAFD|
"Em" EBBA B2 EB| B2 AB defg| "D" afec dBAF| DEFD "Em" E2:|
|:gf| "Em" eB B2 efge| eB B2 gedB| "D" A2 FA DAFA| A2 FA defg|
"Am" eB B2 eBgB| eB B2 defg| "Bm" afec dBAF| "D" DEFD "Em" E2:|
